common/src/main/resources/icons/codeWithMe/cwmAccessOff.svg

<svg xmlns="http://www.w3.org/2000/svg" width="16" height="16" data-big="true" viewBox="0 0 24 24"><path fill="#EF5350" d="M24 17v2h-3v-2c0-1.55-.7-2.94-1.82-3.94C24 13.55 24 17 24 17M18 5c1.66 0 3 1.34 3 3a2.996 2.996 0 0 1-3.9 2.86c.57-.81.9-1.79.9-2.86 0-1.06-.33-2.05-.9-2.86.28-.09.59-.14.9-.14m-5 0c1.66 0 3 1.34 3 3s-1.34 3-3 3-3-1.34-3-3 1.34-3 3-3m6 12v2H7v-2c0-2.21 2.69-4 6-4s6 1.79 6 4M.464 13.12 2.59 11 .464 8.88 1.88 7.46 4 9.59l2.12-2.13 1.42 1.42L5.41 11l2.13 2.12-1.42 1.42L4 12.41l-2.12 2.13Z"/></svg>

<!--
  - The MIT License (MIT)
  -
  - Copyright (c) 2015-2024 Elior "Mallowigi" Boukhobza
  -
  - Permission is hereby granted, free of charge, to any person obtaining a copy
  - of this software and associated documentation files (the "Software"), to deal
  - in the Software without restriction, including without limitation the rights
  - to use, copy, modify, merge, publish, distribute, sublicense, and/or sell
  - copies of the Software, and to permit persons to whom the Software is
  - furnished to do so, subject to the following conditions:
  -
  - The above copyright notice and this permission notice shall be included in all
  - copies or substantial portions of the Software.
  -
  - THE SOFTWARE IS PROVIDED "AS IS", WITHOUT WARRANTY OF ANY KIND, EXPRESS OR
  - IMPLIED, INCLUDING BUT NOT LIMITED TO THE WARRANTIES OF MERCHANTABILITY,
  - FITNESS FOR A PARTICULAR PURPOSE AND NONINFRINGEMENT. IN NO EVENT SHALL THE
  - AUTHORS OR COPYRIGHT HOLDERS BE LIABLE FOR ANY CLAIM, DAMAGES OR OTHER
  - LIABILITY, WHETHER IN AN ACTION OF CONTRACT, TORT OR OTHERWISE, ARISING FROM,
  - OUT OF OR IN CONNECTION WITH THE SOFTWARE OR THE USE OR OTHER DEALINGS IN THE
  - SOFTWARE.
  -->


<svg data-big="true" xmlns="http://www.w3.org/2000/svg" version="1.1" width="16px" height="16px" viewBox="0 0 24 24">
  <path fill="#EF5350"
        d="M24 17V19H21V17C21 15.45 20.3 14.06 19.18 13.06C24 13.55 24 17 24 17M18 5C19.66 5 21 6.34 21 8C21 9.66 19.66 11 18 11C17.69 11 17.38 10.95 17.1 10.86C17.67 10.05 18 9.07 18 8C18 6.94 17.67 5.95 17.1 5.14C17.38 5.05 17.69 5 18 5M13 5C14.66 5 16 6.34 16 8C16 9.66 14.66 11 13 11C11.34 11 10 9.66 10 8C10 6.34 11.34 5 13 5M19 17V19H7V17C7 14.79 9.69 13 13 13C16.31 13 19 14.79 19 17M.464 13.12L2.59 11L.464 8.88L1.88 7.46L4 9.59L6.12 7.46L7.54 8.88L5.41 11L7.54 13.12L6.12 14.54L4 12.41L1.88 14.54Z"/>
</svg>
